X:1022
T:Lady Mary Montague's Do.
M:C
L:1/8
Q:1/2=104
I: :: ::
Z:Jack Campin * www.campin.me.uk * 2009
K:D
B|AFdF TA2FA|BGAF GEEG|FADF GBEd|ceAc dDD:|
g|fdad Tf2df|gfed ceeg|fdad fadf|gbag fdda|
  fdad Tf2df|gfed ceeg|B2GB ceAc|dfeg fdd|]
<end>
<start>
